!!!COM: Bach, Johann Sebastian
!!!CDT: 1685/3//-1750/7/28/
!!!OTL@@DE: Aus meines Herzens Grunde
!!!OTL@EN:  From the depths of my heart
!!!AGN: 4-Part Chorale
!!!SCT: BH 001
!!!SCT: BWV 269
**harm	**root	**kern	**kern	**kern	**kern
!	!	!bass	!tenor	!alto	!sprno
*	*Iorgan	*Iorgan	*Iorgan	*Iorgan	*Iorgan
*	*	*clefF4	*clefF4	*clefG2	*clefG2
*k[f#c#]	*k[f#c#]	*k[f#c#]	*k[f#c#]	*k[f#c#]	*k[f#c#]
*D:	*D:	*D:	*D:	*D:	*D:
*M3/4	*M3/4	*M3/4	*M3/4	*M3/4	*M3/4
*MM60	*MM60	*MM60	*MM60	*MM60	*MM60
*>[A,A,B]	*>[A,A,B]	*>[A,A,B]	*>[A,A,B]	*>[A,A,B]	*>[A,A,B]
*>A	*>A	*>A	*>A	*>A	*>A
I	4GG	4DD	4F#	4A	4d
=1	=1	=1	=1	=1	=1
I	4GG	4D	4F#	4A	2d
IVb[vi]	4EE	4BB	8G	4B	.
.	.	.	8F#	.	.
Vb	4DD	4C#	4E	4A	4a
=2	=2	=2	=2	=2	=2
I	4GG	4D	4D	2A	4.f#
V	4DD	4AA	4C#	.	.
.	.	.	.	.	8e
vi	4EE	4BB	4D	4F#	4d
=3	=3	=3	=3	=3	=3
IV	4CC	4GG	8G	8B	4.d
.	.	.	8F#	8A	.
IV7d	8CC	8FF#	4G	8B	.
viiob	8FF#	8EE	.	8c#	8e
I	4GG	4DD	4A	4d	4f#
=4	=4	=4	=4	=4	=4
V;	2DD;	2AA;	2A;	2c#;	2e;
I	4GG	4DD	4A	4d	4f#
=5	=5	=5	=5	=5	=5
Vb	4DD	4CC#	4E	4A	2a
vi7b	4EE	4DD	4F#	4B	.
viiob	4FF#	4EE	4G	4c#	4g
=6	=6	=6	=6	=6	=6
Ib	4GG	4FF#	4A	2d	4f#
ii7b	4AA	4GG	4B	.	2e
V7	4DD	4AA	8A	4c#	.
.	.	.	8G	.	.
=7	=7	=7	=7	=7	=7
I;	2GG;	2DD;	2F#;	2A;	2d;
=:|!	=:|!	=:|!	=:|!	=:|!	=:|!
*>B	*>B	*>B	*>B	*>B	*>B
I	4GG	4DD	4A	[4d	4f#
=8	=8	=8	=8	=8	=8
I	4GG	4DD	4A	8d]	4f#
.	.	.	.	8c#	.
ii	4AA	4EE	4G	8B	4g
.	.	.	.	8c#	.
Ib	4GG	4FF#	8F#	[4d	4a
.	.	.	8E	.	.
=9	=9	=9	=9	=9	=9
Ib	4.GG	4.FF#	8F#	8d]	4.a
.	.	.	8G	8e	.
.	.	.	4A	8d	.
V7c	8DD	8EE	.	8c#	8g
I	4GG	4DD	4A	4d	4f#
!!linebreak: 2
=10	=10	=10	=10	=10	=10
V;	2DD;	2AA;	2A;	2c#;	2e;
vi	4EE	[4BB	4F#	4B	4d
=11	=11	=11	=11	=11	=11
vi	4EE	4BB]	4D	4B	2f#
iiib[Ic]	4BB	4AA	4F#	8c#	.
.	.	.	.	8d	.
iib	4AA	4GG	4B	4e	4g
=12	=12	=12	=12	=12	=12
Ib	2GG	4.FF#	2A	4e	2a
.	.	.	.	4.d	.
.	.	8GG	.	.	.
V7	4DD	4AA	4A	.	4g
.	.	.	.	8c#	.
=13	=13	=13	=13	=13	=13
I	4GG	8DD	2.A	2d	2.f#
.	.	8EE	.	.	.
Ib	4GG	4FF#	.	.	.
V7/IV	4GG	4DD	.	4c	.
=14	=14	=14	=14	=14	=14
IV;	2CC;	2GG;	2G;	2B;	2d;
I	4GG	4DD	4A	4d	4f#
=15	=15	=15	=15	=15	=15
Vb	4DD	4CC#	8A	4.e	2a
.	.	.	8G	.	.
I	4GG	4DD	4F#	.	.
.	.	.	.	8d	.
viiob	4FF#	4EE	4G	4c#	4g
=16	=16	=16	=16	=16	=16
I	2GG	4FF#	2A	2d	2f#
.	.	4DD	.	.	.
V	4DD	4AA	8A	[4c#	4e
.	.	.	8G	.	.
=17	=17	=17	=17	=17	=17
vi	4EE	8BB	4F#	8c#]	4.d
.	.	8AA	.	8B	.
IV	8CC	8GG	4G	8B	.
viio7d	8FF#	8FF#	.	8c#	8e
I	4GG	8EE	4A	4d	4f#
.	.	8DD	.	.	.
=18	=18	=18	=18	=18	=18
V;	2DD;	2AA;	2A;	2c#;	2e;
I	4GG	[4D	4A	4d	4f#
=19	=19	=19	=19	=19	=19
Vb	2DD	4D]	2A	2e	2a
.	.	4C#	.	.	.
IVb	4CC	[4BB	4B	8d	4g
.	.	.	.	8c#	.
=20	=20	=20	=20	=20	=20
vi	4EE	8BB]	2B	2d	4f#
.	.	8AA	.	.	.
ii7b	4AA	4GG	.	.	2e
V7	4DD	4AA	8A	4c#	.
.	.	.	8G	.	.
=21	=21	=21	=21	=21	=21
I;	2GG;	2DD;	2F#;	2A;	2d;
==	==	==	==	==	==
*-	*-	*-	*-	*-	*-
!!chor2scor: -l 2 -s 0.6 -o %b.pmx
!!!ONB1: Text by Georg Niege; 16th Century secular melody, first appears 
!!!ONB2: in sacred use in Neu Catechismus-Gesangbüchlein, Hamburg, 1598. 
!!!YEC: Copyright 2001 by Craig Stuart Sapp
!!!license: GNU General Public License (http://www.gnu.org/copyleft/gpl.html)
!!!SMA: 371 Bach Chorales, edited by Ludwig Erk, C.F. Peters
!!!PDT: 1850, 1865
!!!ONB: Harmony and Root analysis done manually by Craig Sapp
!! Beat 2 of measure 1 chord could also be IVb (with root on C)
